logos/hra-logos/hra-logo-blue.svg

<svg width="220" height="226" viewBox="0 0 220 226" fill="none"
    xmlns="http://www.w3.org/2000/svg">
    <g id="Property 1=logos, Property 2=NIH">
        <path id="Vector" d="M220 110.189C220 49.3333 170.751 0 110 0C49.2487 0 0 49.3333 0 110.189V115.811C0 176.667 49.2487 226 110 226C170.751 226 220 176.667 220 115.811V110.189Z" fill="#416DB4"/>
        <path id="Vector_2" d="M201.457 75.2036C196.457 63.3644 189.301 52.732 180.187 43.6007C171.074 34.4694 160.457 27.3011 148.638 22.2951C136.399 17.1102 123.4 14.4792 110.001 14.4792C96.6022 14.4792 83.6034 17.1079 71.3639 22.2951C59.5449 27.3034 48.9306 34.4716 39.8149 43.6007C30.6992 52.7297 23.5431 63.3644 18.5457 75.2036C13.3696 87.4639 10.7432 100.485 10.7432 113.907C10.7432 127.329 13.3674 140.35 18.5457 152.61C23.5454 164.449 30.7015 175.082 39.8149 184.213C48.9284 193.342 59.5449 200.513 71.3639 205.519C83.6034 210.704 96.6022 213.334 110.001 213.334C123.4 213.334 136.399 210.706 148.638 205.519C160.457 200.51 171.074 193.342 180.187 184.213C189.301 175.082 196.459 164.449 201.457 152.61C206.633 140.35 209.259 127.329 209.259 113.907C209.259 100.485 206.635 87.4639 201.457 75.2036ZM202.472 113.001H179.69C179.668 111.242 179.582 109.494 179.43 107.757L197.296 105.946C197.668 105.908 197.94 105.575 197.901 105.201C197.863 104.828 197.531 104.554 197.158 104.594L179.299 106.406C178.271 96.6948 175.249 87.4232 170.432 79.0707L190.13 67.707C197.838 81.07 202.311 96.5273 202.469 113.001H202.472ZM17.5308 113.001C17.5805 107.871 18.0484 102.84 18.9005 97.9401L41.3044 102.004C40.6896 105.606 40.3574 109.281 40.3122 113.001H17.5308ZM43.5421 102.41L63.9163 106.107C63.5388 108.355 63.3196 110.658 63.2766 113.001H42.5747C42.6222 109.397 42.9522 105.86 43.5444 102.41H43.5421ZM139.805 145.714L132.586 137.18C133.892 135.908 135.093 134.526 136.171 133.05L145.551 139.116C143.858 141.504 141.93 143.712 139.805 145.714ZM75.9116 141.061L84.6544 134.135C85.5359 135.24 86.4875 136.288 87.5023 137.268L80.0117 145.544C78.5448 144.147 77.1751 142.648 75.9116 141.061ZM81.169 81.2103L88.3771 89.7303C83.3095 94.2835 79.675 100.406 78.2465 107.327L67.2705 105.335C69.1714 95.8163 74.1712 87.4073 81.1668 81.2103H81.169ZM131.185 125.162L133.66 126.439C132.403 128.809 130.803 130.972 128.924 132.853L125.084 128.316C128.407 124.741 130.511 120.015 130.73 114.81H136.752C136.627 118.519 135.748 122.04 134.263 125.223L131.804 123.953C131.472 123.781 131.062 123.912 130.891 124.245C130.719 124.578 130.85 124.988 131.182 125.16L131.185 125.162ZM85.6602 125.067L98.3178 119.031C99.8955 122.628 103.082 125.361 106.961 126.317L104.509 140.155C96.1163 138.396 89.1569 132.688 85.6602 125.067ZM92.0297 94.048L95.5015 98.1507C92.3054 101.019 89.9728 104.864 88.9919 109.277L83.8136 108.337C85.0002 102.731 87.9408 97.7658 92.0319 94.048H92.0297ZM88.9896 110.658C89.0303 110.665 89.071 110.669 89.1116 110.669C89.2518 110.669 89.3829 110.624 89.4936 110.547C89.7265 110.515 89.9254 110.341 89.9706 110.096C90.8182 105.69 93.0807 101.853 96.2315 99.0133L101.098 104.766C98.9235 106.89 97.5041 109.784 97.278 113.001H83.2462C83.2847 111.874 83.3909 110.762 83.5649 109.673L88.9896 110.658ZM120.394 122.773C120.154 122.49 119.777 122.391 119.442 122.492C121.312 120.432 122.514 117.758 122.722 114.815H129.602C129.385 119.674 127.432 124.089 124.352 127.451L120.396 122.775L120.394 122.773ZM100.183 113.909C100.183 108.486 104.588 104.074 110.001 104.074C115.415 104.074 119.82 108.486 119.82 113.909C119.82 119.332 115.415 123.745 110.001 123.745C104.588 123.745 100.183 119.332 100.183 113.909ZM122.722 113.003C122.584 111.031 121.996 109.184 121.063 107.558L127.057 104.101C128.551 106.754 129.458 109.782 129.602 113.003H122.722ZM120.588 106.788C118.294 103.379 114.406 101.13 110.001 101.13C107.189 101.13 104.59 102.047 102.479 103.596L97.6307 97.8676C100.998 95.3454 105.164 93.8692 109.615 93.8692C116.768 93.8692 123.057 97.6503 126.594 103.322L120.586 106.788H120.588ZM97.2803 114.815C97.3639 115.99 97.6035 117.122 97.9833 118.191L85.2986 124.24C84.078 121.322 83.3592 118.145 83.2485 114.815H97.2803ZM107.847 126.502C108.548 126.622 109.267 126.688 110.001 126.688C113.428 126.688 116.54 125.325 118.834 123.115C118.757 123.394 118.814 123.706 119.015 123.946L123.066 128.735C120.484 131.085 117.291 132.772 113.756 133.519C113.719 133.517 113.683 133.519 113.647 133.523C113.604 133.53 113.563 133.546 113.525 133.566C112.261 133.818 110.953 133.951 109.617 133.951C109.305 133.951 109.052 134.205 109.052 134.517C109.052 134.83 109.305 135.083 109.617 135.083C110.91 135.083 112.176 134.966 113.407 134.741L114.418 140.359C112.98 140.599 111.507 140.726 110.001 140.726C108.496 140.726 106.893 140.588 105.397 140.327L107.847 126.502ZM114.291 134.56C117.894 133.743 121.149 132.002 123.796 129.597L127.602 134.096C124.162 137.11 119.949 139.256 115.304 140.196L114.289 134.558L114.291 134.56ZM130.732 113.006C130.588 109.578 129.625 106.358 128.036 103.537L133.208 100.553C135.332 104.243 136.605 108.484 136.754 113.006H130.732ZM127.575 102.758C123.841 96.7469 117.189 92.7371 109.617 92.7371C104.891 92.7371 100.467 94.3129 96.9006 97.0027L93.4107 92.8797C97.9742 89.2594 103.74 87.0949 110.001 87.0949C119.587 87.0949 128.013 92.1688 132.742 99.7786L127.575 102.758ZM136.356 95.0194L145.544 88.6911C146.161 89.5628 146.749 90.4571 147.303 91.3741L137.638 96.9507C137.233 96.2918 136.806 95.6465 136.356 95.0194ZM135.542 93.9303C133.058 90.7514 129.996 88.0458 126.515 85.9741L132.077 76.2949C136.998 79.2043 141.302 83.0534 144.739 87.5975L135.542 93.9326V93.9303ZM125.335 85.3039C121.011 82.9696 116.102 81.5885 110.887 81.4458L110.849 70.2723C118.1 70.4126 124.924 72.3349 130.9 75.6202L125.335 85.3017V85.3039ZM109.079 81.4481C103.731 81.5975 98.7043 83.0534 94.3013 85.5032L88.7026 75.8443C94.742 72.4413 101.668 70.4353 109.041 70.2768L109.079 81.4503V81.4481ZM93.1304 86.1869C91.9551 86.9069 90.8272 87.7016 89.7559 88.562L82.5478 80.042C84.1232 78.7583 85.7868 77.5832 87.5317 76.5258L93.1304 86.1847V86.1869ZM78.0024 108.668C77.7718 110.085 77.6317 111.534 77.591 113.006H66.4365C66.4795 110.855 66.6806 108.742 67.0264 106.677L78.0001 108.668H78.0024ZM77.591 114.817C77.7063 119.017 78.6217 123.018 80.1903 126.677L70.1185 131.481C67.8628 126.364 66.5608 120.733 66.4388 114.817H77.5933H77.591ZM80.5587 127.503C81.4674 129.468 82.5659 131.329 83.8316 133.059L75.0821 139.99C73.301 137.603 71.7617 135.029 70.4914 132.303L80.5587 127.503ZM88.4991 138.194C92.6852 141.917 97.8341 144.575 103.521 145.734L101.573 156.733C93.7769 155.196 86.7225 151.571 81.0131 146.465L88.5014 138.194H88.4991ZM104.409 145.901C106.227 146.218 108.094 146.386 110.001 146.386C111.909 146.386 113.656 146.227 115.419 145.931L117.397 156.926C114.992 157.34 112.521 157.557 110.001 157.557C107.481 157.557 104.911 157.331 102.461 156.901L104.409 145.901ZM116.307 145.768C121.951 144.649 127.073 142.059 131.255 138.414L138.463 146.932C132.812 151.824 125.898 155.289 118.285 156.763L116.307 145.768ZM136.951 131.943C137.577 131.008 138.155 130.037 138.682 129.036L148.593 134.153C147.899 135.477 147.138 136.761 146.317 138L136.951 131.943ZM139.292 127.822C141.175 123.86 142.28 119.459 142.409 114.815H153.564C153.43 121.299 151.88 127.442 149.21 132.941L139.294 127.822H139.292ZM142.409 113.003C142.396 112.505 142.371 112.012 142.335 111.52L153.432 110.395C153.5 111.258 153.546 112.127 153.564 113.003H142.409ZM142.206 110.169C141.69 105.681 140.26 101.47 138.103 97.7273L147.764 92.1529C150.691 97.2292 152.623 102.951 153.301 109.043L142.206 110.169ZM150.505 90.5703L168.441 80.2232C173.016 88.1567 176.024 97.1024 177.048 106.637L156.45 108.724C155.727 102.174 153.652 96.0269 150.505 90.5703ZM150.044 89.7914C149.448 88.802 148.817 87.8352 148.15 86.8933L165.204 75.1492C166.183 76.5417 167.107 77.9749 167.98 79.442L150.044 89.7892V89.7914ZM147.35 85.7975C143.643 80.8685 138.987 76.6934 133.655 73.5462L143.98 55.578C151.986 60.2761 158.945 66.5817 164.411 74.0466L147.348 85.7975H147.35ZM132.477 72.8738C126.033 69.3168 118.667 67.2406 110.837 67.1025L110.767 46.3629C122.381 46.4942 133.298 49.578 142.805 54.9033L132.477 72.8738ZM109.029 67.1047C101.082 67.2678 93.6187 69.4277 87.1136 73.1024L76.7208 55.1704C86.2637 49.7252 97.2532 46.5463 108.959 46.3674L109.029 67.1047ZM85.9428 73.7862C84.0373 74.9364 82.2201 76.2202 80.5022 77.6239L67.1191 61.8066C69.7682 59.6172 72.5867 57.627 75.55 55.8565L85.9428 73.7862ZM79.1235 78.7968C71.5787 85.4601 66.1924 94.519 64.1582 104.776L43.7862 101.078C46.693 86.0013 54.6152 72.6949 65.7426 62.9795L79.1235 78.7968ZM63.2744 114.817C63.3964 121.22 64.8069 127.313 67.2593 132.844L48.56 141.76C44.8237 133.523 42.6968 124.408 42.5702 114.817H63.2721H63.2744ZM67.6345 133.668C69.0065 136.609 70.6745 139.388 72.6003 141.957L56.3669 154.818C53.4828 151.032 50.9875 146.932 48.9419 142.58L67.6322 133.666L67.6345 133.668ZM73.4321 143.033C74.8041 144.758 76.2936 146.384 77.8894 147.898L63.9886 163.254C61.5498 160.972 59.2805 158.51 57.201 155.891L73.4321 143.033ZM78.8884 148.815C85.0296 154.315 92.6264 158.216 101.019 159.858L97.4001 180.28C85.0929 177.941 73.9587 172.24 64.9877 164.171L78.8884 148.815ZM101.909 160.025C104.538 160.487 107.244 160.729 110.003 160.729C112.763 160.729 115.374 160.494 117.96 160.048L121.63 180.459C117.851 181.12 113.966 181.467 110.001 181.467C106.037 181.467 102.095 181.116 98.2884 180.445L101.907 160.025H101.909ZM118.848 159.885C127.021 158.309 134.444 154.598 140.508 149.352L153.887 165.165C145.097 172.727 134.349 178.064 122.519 180.296L118.848 159.885ZM141.853 148.141C144.213 145.935 146.347 143.492 148.211 140.843L154.009 144.593C154.122 144.667 154.251 144.701 154.375 144.701C154.597 144.701 154.816 144.593 154.945 144.391C155.148 144.077 155.058 143.655 154.743 143.452L148.975 139.723C149.852 138.396 150.666 137.024 151.407 135.609L169.808 145.107C166.09 152.232 161.142 158.615 155.245 163.969L141.855 148.141H141.853ZM152.022 134.397C154.917 128.463 156.595 121.827 156.728 114.819H177.43C177.292 125.248 174.785 135.111 170.423 143.895L152.022 134.395V134.397ZM156.728 113.008C156.71 112.025 156.66 111.049 156.581 110.08L177.179 107.993C177.324 109.648 177.407 111.321 177.43 113.008H156.728ZM110.001 21.2785C143.885 21.2785 173.572 39.6293 189.678 66.9304L169.98 78.2941C169.08 76.7794 168.122 75.2964 167.105 73.8451L182.47 63.2647C182.78 63.0519 182.857 62.6285 182.644 62.3206C182.432 62.0104 182.009 61.9334 181.702 62.1463L166.312 72.7447C164.203 69.8625 161.859 67.1183 159.289 64.544C154.997 60.2444 150.239 56.5765 145.133 53.5833L154.418 37.4218C154.606 37.0958 154.493 36.6814 154.169 36.4935C153.844 36.3056 153.43 36.4188 153.243 36.7426L143.955 52.904C133.908 47.2731 122.568 44.2256 110.761 44.101L110.697 25.3041C110.697 24.806 110.29 24.4007 109.793 24.4007H109.791C109.291 24.4007 108.889 24.8083 108.889 25.3086L108.952 44.1033C97.0588 44.2776 85.6489 47.4157 75.5658 53.1735L66.041 36.738C65.8534 36.4143 65.4375 36.3033 65.1143 36.4913C64.791 36.6792 64.6803 37.0958 64.8679 37.4195L74.395 53.8572C71.3413 55.6821 68.4143 57.7516 65.6386 60.0519L50.9423 42.6792C66.9722 29.3184 87.5679 21.2739 110.003 21.2739L110.001 21.2785ZM49.5612 43.8565L64.2599 61.2315C63.0461 62.2912 61.8639 63.3938 60.7135 64.544C50.7208 74.5538 44.1388 87.0699 41.5463 100.675L19.1424 96.6088C23.1024 75.7017 34.0964 57.2602 49.5612 43.8565ZM17.5308 114.819H40.3122C40.4365 124.609 42.5589 134.078 46.4873 142.752L25.9549 152.542C20.6636 141.036 17.6596 128.266 17.5308 114.819ZM26.3368 153.364L46.8647 143.576C48.9578 148.039 51.5367 152.284 54.5655 156.249L39.7923 167.952C39.4985 168.185 39.4487 168.613 39.6816 168.905C39.8149 169.075 40.0138 169.163 40.2127 169.163C40.3596 169.163 40.5088 169.116 40.6331 169.016L55.3996 157.317C57.0473 159.389 58.8171 161.381 60.7135 163.283C61.2831 163.854 61.8617 164.406 62.4471 164.954L49.3533 179.418C49.1024 179.696 49.1228 180.124 49.4008 180.378C49.5296 180.495 49.6946 180.554 49.8551 180.554C50.0404 180.554 50.2235 180.479 50.3569 180.332L63.4439 165.876C72.9981 174.486 84.5459 180.183 97 182.524L93.0197 204.982C63.4733 199.469 38.8226 179.836 26.3323 153.364H26.3368ZM93.9125 205.145L97.8906 182.689C101.851 183.38 105.897 183.733 109.999 183.733C114.101 183.733 118.095 183.384 122.03 182.703L126.067 205.147C120.848 206.067 115.478 206.549 109.999 206.549C104.52 206.549 99.1383 206.067 93.9102 205.145H93.9125ZM126.958 204.987L122.921 182.54C134.896 180.303 146.032 174.966 155.37 166.922L162.88 175.799C163.059 176.01 163.314 176.119 163.57 176.119C163.776 176.119 163.984 176.049 164.153 175.904C164.535 175.58 164.58 175.009 164.259 174.627L156.726 165.722C157.596 164.932 158.448 164.121 159.284 163.283C164.39 158.169 168.603 152.397 171.852 146.164L175.852 148.229C175.952 148.281 176.058 148.304 176.162 148.304C176.408 148.304 176.646 148.17 176.765 147.935C176.937 147.602 176.806 147.192 176.474 147.02L172.471 144.953C177.068 135.69 179.557 125.445 179.69 114.819H202.472C202.04 159.695 169.594 197.037 126.958 204.984V204.987Z" fill="url(#paint0_linear_1915_471)"/>
    </g>
    <defs>
        <linearGradient id="paint0_linear_1915_471" x1="24.0201" y1="163.63" x2="196.127" y2="64.4339" gradientUnits="userSpaceOnUse">
            <stop offset="0.12" stop-color="white" stop-opacity="0"/>
            <stop offset="0.44" stop-color="white"/>
        </linearGradient>
    </defs>
</svg>

<svg xmlns="http://www.w3.org/2000/svg" width="220" height="226" fill="none" viewBox="0 0 220 226">
    <path fill="#416DB4" d="M220 110.189C220 49.333 170.751 0 110 0S0 49.333 0 110.189v5.622C0 176.667 49.249 226 110 226s110-49.333 110-110.189z"/>
    <path fill="url(#a)" d="M201.457 75.204c-5-11.84-12.156-22.472-21.27-31.603s-19.73-16.3-31.549-21.306c-12.239-5.185-25.238-7.816-38.637-7.816s-26.398 2.629-38.637 7.816c-11.82 5.008-22.433 12.177-31.55 21.306-9.115 9.129-16.27 19.763-21.268 31.603-5.176 12.26-7.803 25.281-7.803 38.703s2.624 26.443 7.803 38.703c5 11.839 12.156 22.472 21.269 31.603 9.113 9.129 19.73 16.3 31.549 21.306 12.24 5.185 25.238 7.815 38.637 7.815s26.398-2.628 38.637-7.815c11.819-5.009 22.436-12.177 31.549-21.306 9.114-9.131 16.272-19.764 21.27-31.603 5.176-12.26 7.802-25.281 7.802-38.703s-2.624-26.443-7.802-38.703M202.472 113H179.69a70 70 0 0 0-.26-5.244l17.866-1.811a.68.68 0 0 0 .605-.745.677.677 0 0 0-.743-.607l-17.859 1.812a69.2 69.2 0 0 0-8.867-27.335l19.698-11.364c7.708 13.363 12.181 28.82 12.339 45.294zm-184.941 0c.05-5.13.517-10.161 1.37-15.06l22.403 4.063a70.4 70.4 0 0 0-.992 10.997zm26.011-10.591 20.374 3.697a47 47 0 0 0-.64 6.894H42.576c.047-3.604.377-7.141.97-10.591zm96.263 43.304-7.219-8.534a32.7 32.7 0 0 0 3.585-4.13l9.38 6.066a44 44 0 0 1-5.746 6.598m-63.893-4.653 8.742-6.926a33 33 0 0 0 2.848 3.133l-7.49 8.276a44 44 0 0 1-4.1-4.483m5.257-59.85 7.208 8.52c-5.067 4.553-8.702 10.675-10.13 17.596l-10.977-1.992c1.901-9.519 6.901-17.928 13.897-24.125zm50.016 43.951 2.475 1.277a27 27 0 0 1-4.736 6.414l-3.84-4.537a21.1 21.1 0 0 0 5.646-13.506h6.022a26.7 26.7 0 0 1-2.489 10.413l-2.459-1.27a.68.68 0 0 0-.622 1.207zm-45.525-.095 12.658-6.036a12.82 12.82 0 0 0 8.643 7.286l-2.452 13.838c-8.393-1.759-15.352-7.467-18.849-15.088m6.37-31.019 3.471 4.103a21.08 21.08 0 0 0-6.51 11.126l-5.177-.94a26.83 26.83 0 0 1 8.218-14.289zm-3.04 16.61a.666.666 0 0 0 .504-.111.56.56 0 0 0 .477-.451 19.97 19.97 0 0 1 6.26-11.083l4.867 5.753a12.75 12.75 0 0 0-3.82 8.235H83.246c.039-1.127.145-2.239.319-3.328zm31.404 12.115a.9.9 0 0 0-.952-.281 12.74 12.74 0 0 0 3.28-7.677h6.88a20 20 0 0 1-5.25 12.636l-3.956-4.676zm-20.211-8.864c0-5.423 4.405-9.835 9.818-9.835 5.414 0 9.819 4.412 9.819 9.835s-4.405 9.836-9.819 9.836c-5.413 0-9.818-4.413-9.818-9.836m22.539-.906a12.7 12.7 0 0 0-1.659-5.445l5.994-3.457a19.9 19.9 0 0 1 2.545 8.902zm-2.134-6.215c-2.294-3.409-6.182-5.658-10.587-5.658a12.67 12.67 0 0 0-7.522 2.466l-4.848-5.728a19.96 19.96 0 0 1 11.984-3.999c7.153 0 13.442 3.781 16.979 9.453l-6.008 3.466zm-23.308 8.027c.084 1.175.323 2.307.703 3.376L85.3 124.24a26.7 26.7 0 0 1-2.05-9.425zm10.567 11.687a12.695 12.695 0 0 0 10.987-3.387.91.91 0 0 0 .181.831l4.051 4.789a19.97 19.97 0 0 1-9.31 4.784.403.403 0 0 0-.231.047 20 20 0 0 1-3.908.385.566.566 0 0 0 0 1.132 21 21 0 0 0 3.79-.342l1.011 5.618a26.8 26.8 0 0 1-9.021-.032zm6.444 8.058a21.06 21.06 0 0 0 9.505-4.963l3.806 4.499a26.7 26.7 0 0 1-12.298 6.1l-1.015-5.638zm16.441-21.554a21.05 21.05 0 0 0-2.696-9.469l5.172-2.984a26.66 26.66 0 0 1 3.546 12.453zm-3.157-10.248c-3.734-6.011-10.386-10.02-17.958-10.02-4.726 0-9.15 1.575-12.716 4.265l-3.49-4.123A26.6 26.6 0 0 1 110 87.095c9.586 0 18.012 5.074 22.741 12.684zm8.781-7.739 9.188-6.328a44 44 0 0 1 1.759 2.683l-9.665 5.577a33 33 0 0 0-1.282-1.932m-.814-1.089a32.7 32.7 0 0 0-9.027-7.956l5.562-9.68a43.9 43.9 0 0 1 12.662 11.304l-9.197 6.335zm-10.207-8.626a32.2 32.2 0 0 0-14.448-3.858l-.038-11.174A43.25 43.25 0 0 1 130.9 75.62l-5.565 9.682zm-16.256-3.856a32.17 32.17 0 0 0-14.778 4.055l-5.598-9.659a43.2 43.2 0 0 1 20.338-5.567l.038 11.173zM93.13 86.187a33 33 0 0 0-3.374 2.375l-7.208-8.52a44 44 0 0 1 4.984-3.516l5.598 9.659zm-15.128 22.481a33 33 0 0 0-.411 4.338H66.437c.043-2.151.244-4.264.59-6.329L78 108.668zm-.411 6.149c.115 4.2 1.03 8.201 2.6 11.86l-10.073 4.804a43.45 43.45 0 0 1-3.68-16.664h11.155zm2.968 12.686a32.6 32.6 0 0 0 3.273 5.556l-8.75 6.931a43.8 43.8 0 0 1-4.59-7.687zm7.94 10.691a32.3 32.3 0 0 0 15.022 7.54l-1.948 10.999c-7.796-1.537-14.85-5.162-20.56-10.268l7.488-8.271zm15.91 7.707a32.5 32.5 0 0 0 11.01.03l1.978 10.995a43.6 43.6 0 0 1-7.396.631c-2.52 0-5.09-.226-7.54-.656zm11.898-.133a32.3 32.3 0 0 0 14.948-7.354l7.208 8.518a43.44 43.44 0 0 1-20.178 9.831zm20.644-13.825a32 32 0 0 0 1.731-2.907l9.911 5.117a44 44 0 0 1-2.276 3.847zm2.341-4.121a32.3 32.3 0 0 0 3.117-13.007h11.155a43.5 43.5 0 0 1-4.354 18.126l-9.916-5.119zm3.117-14.819a32 32 0 0 0-.074-1.483l11.097-1.125q.103 1.294.132 2.608zm-.203-2.834a32.3 32.3 0 0 0-4.103-12.442l9.661-5.574a43.4 43.4 0 0 1 5.537 16.89zm8.299-19.599 17.936-10.347a67.15 67.15 0 0 1 8.607 26.414l-20.598 2.087a46.5 46.5 0 0 0-5.945-18.154m-.461-.779a47 47 0 0 0-1.894-2.898l17.054-11.744a67 67 0 0 1 2.776 4.293l-17.936 10.347zm-2.694-3.993a47.1 47.1 0 0 0-13.695-12.252l10.325-17.968a68 68 0 0 1 20.431 18.469l-17.063 11.75zm-14.873-12.924a46.35 46.35 0 0 0-21.64-5.771l-.07-20.74a66.9 66.9 0 0 1 32.038 8.54zm-23.448-5.77a46.4 46.4 0 0 0-21.915 5.998L76.72 55.17a66.9 66.9 0 0 1 32.238-8.803zm-23.086 6.682a47 47 0 0 0-5.44 3.838L67.118 61.807a68 68 0 0 1 8.431-5.95zm-6.82 5.01c-7.544 6.664-12.93 15.723-14.965 25.98l-20.372-3.698c2.907-15.077 10.83-28.383 21.957-38.098zm-15.849 36.021a46.6 46.6 0 0 0 3.985 18.027L48.56 141.76a67.2 67.2 0 0 1-5.99-26.943h20.704m4.36 18.851a47 47 0 0 0 4.966 8.289l-16.233 12.861a67.8 67.8 0 0 1-7.425-12.238l18.69-8.914zm5.798 9.365a47 47 0 0 0 4.457 4.865l-13.9 15.356a68 68 0 0 1-6.788-7.363zm5.456 5.782c6.142 5.5 13.738 9.401 22.131 11.043L97.4 180.28c-12.307-2.339-23.441-8.04-32.412-16.109zm23.021 11.21c2.629.462 5.335.704 8.094.704 2.76 0 5.371-.235 7.957-.681l3.67 20.411a67.672 67.672 0 0 1-23.342-.014l3.619-20.42zm16.939-.14a46.6 46.6 0 0 0 21.66-10.533l13.379 15.813c-8.79 7.562-19.538 12.899-31.368 15.131zm23.005-11.744a47 47 0 0 0 6.358-7.298l5.798 3.75a.674.674 0 0 0 .936-.202.68.68 0 0 0-.202-.939l-5.768-3.729a47 47 0 0 0 2.432-4.114l18.401 9.498a68 68 0 0 1-14.563 18.862l-13.39-15.828zm10.169-13.744a46.6 46.6 0 0 0 4.706-19.578h20.702a67.2 67.2 0 0 1-7.007 29.076l-18.401-9.5zm4.706-21.389a47 47 0 0 0-.147-2.928l20.598-2.087q.217 2.483.251 5.015zm-46.727-91.73c33.884 0 63.571 18.351 79.677 45.652L169.98 78.294a71 71 0 0 0-2.875-4.449l15.365-10.58a.678.678 0 1 0-.768-1.119l-15.39 10.599a71 71 0 0 0-7.023-8.201 70 70 0 0 0-14.156-10.96l9.285-16.162a.678.678 0 1 0-1.175-.68l-9.288 16.162c-10.047-5.63-21.387-8.678-33.194-8.803l-.064-18.797a.906.906 0 0 0-.904-.903h-.002c-.5 0-.902.407-.902.908l.063 18.794c-11.893.175-23.303 3.313-33.386 9.07L66.04 36.739a.678.678 0 1 0-1.173.681l9.527 16.438a70 70 0 0 0-8.756 6.195L50.942 42.679c16.03-13.36 36.626-21.405 59.061-21.405zm-60.44 22.579L64.26 61.23a72 72 0 0 0-3.547 3.313c-9.992 10.01-16.574 22.526-19.167 36.131l-22.404-4.066c3.96-20.907 14.954-39.349 30.42-52.752m-32.03 70.962h22.781c.125 9.79 2.247 19.259 6.175 27.933l-20.532 9.79c-5.291-11.506-8.295-24.276-8.424-37.723m8.806 38.545 20.528-9.788a69.5 69.5 0 0 0 7.7 12.673l-14.773 11.703a.678.678 0 0 0 .841 1.064L55.4 157.317a71 71 0 0 0 5.314 5.966c.57.571 1.148 1.123 1.733 1.671l-13.094 14.464a.68.68 0 0 0 .502 1.136.68.68 0 0 0 .502-.222l13.087-14.456c9.554 8.61 21.102 14.307 33.556 16.648l-3.98 22.458c-29.547-5.513-54.197-25.146-66.688-51.618zm67.576 51.781 3.978-22.456a70.4 70.4 0 0 0 12.108 1.044c4.102 0 8.096-.349 12.031-1.03l4.037 22.444a92.5 92.5 0 0 1-16.068 1.402c-5.479 0-10.86-.482-16.089-1.404zm33.045-.158-4.037-22.447c11.975-2.237 23.111-7.574 32.449-15.618l7.51 8.877a.903.903 0 0 0 1.273.105.91.91 0 0 0 .106-1.277l-7.533-8.905q1.305-1.183 2.558-2.439a70 70 0 0 0 12.568-17.119l4 2.065q.152.077.31.075a.68.68 0 0 0 .312-1.284l-4.003-2.067c4.597-9.263 7.086-19.508 7.219-30.134h22.782c-.432 44.876-32.878 82.218-75.514 90.165z"/>
    <defs>
        <linearGradient id="a" x1="24.02" x2="196.127" y1="163.63" y2="64.434" gradientUnits="userSpaceOnUse">
            <stop offset=".12" stop-color="#fff" stop-opacity="0"/>
            <stop offset=".44" stop-color="#fff"/>
        </linearGradient>
    </defs>
</svg>
